Obsidian-SemiLight/actions/16s/view-time-schedule-child-insert.svg

<svg viewBox="0 0 16 16" xmlns="http://www.w3.org/2000/svg"><path d="m2 2v7h1v-4h1 8 1v3h1v-6h-2v2h-2v-2h-4v2h-2v-2zm2 4v2h1 4 1v-2h-1v1h-4v-1zm0 3v2h-2v1h2v2h1v-2h2v-1h-2v-2zm4 0v5h6v-5h-1v1h-1v-1h-2v1h-1v-1zm1 2h4v2h-4z" fill="#4d4d4d"/></svg>

<svg xmlns="http://www.w3.org/2000/svg" viewBox="0 0 16 16">
  <defs id="defs3051">
    <style type="text/css" id="current-color-scheme">
      .ColorScheme-Text {
        color:#4d4d4d;
      }
      </style>
  </defs>
    <path
       style="fill:currentColor;fill-opacity:1;stroke:none" 
       d="M 2 2 L 2 9 L 3 9 L 3 5 L 4 5 L 12 5 L 13 5 L 13 8 L 14 8 L 14 2 L 12 2 L 12 4 L 10 4 L 10 2 L 6 2 L 6 4 L 4 4 L 4 2 L 2 2 z M 4 6 L 4 8 L 5 8 L 9 8 L 10 8 L 10 6 L 9 6 L 9 7 L 5 7 L 5 6 L 4 6 z M 4 9 L 4 11 L 2 11 L 2 12 L 4 12 L 4 14 L 5 14 L 5 12 L 7 12 L 7 11 L 5 11 L 5 9 L 4 9 z M 8 9 L 8 14 L 14 14 L 14 9 L 13 9 L 13 10 L 12 10 L 12 9 L 10 9 L 10 10 L 9 10 L 9 9 L 8 9 z M 9 11 L 13 11 L 13 13 L 9 13 L 9 11 z "
     class="ColorScheme-Text"
       id="rect4449" />
</svg>
